!!!OTL: Der Reiter zu Braunschweig und das Maedchen. / (Mel. Te Munster staet een steynen huys.)
!!!ARE: Europa, Mitteleuropa, Deutschland
!!!SCT: A0429
!!!TXL: @@NLD
!!!YEM: Copyright 1995, estate of Helmut Schaffrath.
**kern	**text
*M4/2	*
*met(c|)	*
*clefC3	*
*k[b-]	*
*C:mix	*
=1	=1
!LO:TX:a:t=mixolyd.	!
2ryy	.
{2c	Te
2c	Bruin-
2c	-ſwije
=2	=2
2f	ſtaet
2c	een
2d	ho-
2e	-ghe
=3	=3
1f	huis,
2r}	.
{2f	daer
=4	=4
2f	ſiet
2f	een
*lig	*
2.g	fijn
4f	.
*Xlig	*
=5	=5
2e	maecht
2f	ter
2d	vein-
2d	-ster
=6	=6
1c	uut
1r	.
=7	=7
2r}	.
{2f	met
2f	haer
2c	bruin
=8	=8
*lig	*
2.c/	o-
4B-	.
2A	.
*Xlig	*
2B-	-ghen
=9	=9
1G	cla-
1F	-re,
=10	=10
2r}	.
{2f	de
2f	self-
2g	-de
=11	=11
2a	maecht
2f	ic
2g	heb-
2g	-ben
=12	=12
*lig	*
2g	wil,
4f	.
4e	.
1d	.
*Xlig	*
=13	=13
2r}	.
{2g	't
2g	cost
2g	mi
=14	=14
*lig	*
2f	wat-
4e	.
4d	.
2c	.
*Xlig	*
2e	-het
=15	=15
1d	wel-
1c\ll}	-le.
==	==
!!!GTL: Landsknecht- und Reiterlieder
!!!AGN: Romanze, Ballade, Lied, Kriegslied
!! Souterliedekens 1540 ad Ps. 84.
!!!ONB: ESAC (Essen Associative Code) Database: ALTDEU
!!!AMT: simple quadruple
!!!AIN: vox
!!!EED: Helmut Schaffrath
!!!EEV: 1.0
!!@@COMMENT: "Die Versform ist die Lindenschmidstrophe. Vergl. auch: Ich rent einmal zur Winterszeit 
!! (Martinslied — mit der Tonangabe: Es get ein frischer summer daher.) 
!! Worterklärung: 1, 1 reit — ritt, wie auch in einigen Drucken steht. 3, 1 ungeschmecht, geschmäht"
!!@@END:
!!!RDF**kern: l = terminal long
!!!AMD: Mixolydian
!!!URL-scan: https://rosdok.uni-rostock.de/mcrviewer/recordIdentifier/rosdok_ppn738218359/iview2/phys_0607.iview2?x=-1294.6859637568468&y=1619.0206815944985&scale=0.3170017948926&rotation=0&layout=singlePageLayout&logicalDiv=log_0016
!!!ENC: Anna Maria Matuszewska
!!!EEV: 2024/18/03
*-	*-
